X: 21322
M: 2/4
L: 1/16
K: G
[|\
agfg (e=f^fg) | ddddd2z2 |\
(ag^fg) e=f(^fg) | cccc c2z2 H|]
K: F
f2f2"^<"a2 zf | f2e2e2 ze |\
g2g2"^<"b2 ze | g2f2f2 za |\
b2b2"_<"d'2 zb | b2a2a2 za |\
(a2g2)(g2e2) | g2f2f2"^D.C."z2 |]


